X:20
T:No.140 Con Cassidy's
M:4/4
L:1/8
C:barndance
K:A
e2ae f2af|ecea ecAc|Bgg2 Baga|
fdfa edcd|e2ae f2af|ecea ecAc|
Bgg2 gedB|[1Aaag aecd:|[2Aaag aefg||
a2ae ceAc|d2Ba gbfg|(3fgf ^de ceB=d|
cABc defg|a2ae ceAc|d2Ba gbfg|
(3fgf ^de ceBc|[1BAGB ABce:|[2BAGB A4||
